X: 169
T:Rad Halaila
T:Atza Aleenu
C: Mordechai Zeira 1969
O:Israel
L:1/8
M:2/4
Q:1/4=120
K:Am
|: "Am"z A z A   | c2 A2    | z c z c     | "Dm"d2 "Am"c2|\
   "Dm"d2 "Am"z c| cB BA    |[1 c4-       |c2 z2         :|[2 A4-|A2 z2|
|: cded          | "Dm"dd d2| dc"Am"ed    | cc c2        |\
   c d2 c        |cBBA      |[1 c4-       |c4            :|[2A4- |A4   |
   c3 d          | c3 d     | cdcd        | c4           |\
   cA "Dm"dc     |"Am"cc c2 | cA "Dm"dc   | "Am"cc c2    | 
   "Am"cA "F"fe  | "Dm"dd d2| "Am"cA "F"fe| "Dm"dd d2    |\
   de "F"f2      | "Am"ed e2| "Dm"dc d2   | "Am"cB A2    |
   "Dm"d2 d2     | dc "Am"ed| c4-         |c4            |\
   "Am"cd ed     |"Dm"dd d2 | dc "Am"ed   | cc c2        |\
   c d2 c        | cBBA     | A4-         |A4            |



